X:773
T:Peggy's Jig
T:Cape Breton Jig #2
C:Mike MacDougall
D:Music at Matt Molloy's
Z:Nigel Gatherer
M:6/8
L:1/8
K:G
z    | B2B GBd | cec E2G | F2F DFA | GBe d2c |
       B2B GBd | cec E2G | FAF DFA | G3 G2  :|
B/c/ | d2d def | gbg d2g | f2f ABc | e2d B2c |
       d2d def | gbg d2g | fed cAF | G3 G2  :|]
<end>
<start>
